X: 1
T: Con Cassidy's Highland
M: 4/4
L: 1/8
R: hornpipe
K: Ador
gfg|eAAB GA(3Bcd|eAAf gfgf|eAAB GABc|dBGB dgfg|
eAAB GA(3Bcd|eAAf gfgf|eAAB GABc|dBGB d2(3Bcd|
eaag efgf   |eaaa bged|eaag efge|dBGB d2(3Bcd|
eaag efgf   |eaaa bged|(3efgfa gfga|bge^c dgfg|
eAAB GA(3Bcd|eAfA gfgf|eAAB GABc|dBGB dgfg|
eAAB GA(3Bcd|eAfA gAfA|eAAB GABc|dBGB d2(3Bcd|
eaag efgf   |eaaa bged|eaag efge|dBGB d2(3Bcd|
eaag efgf   |eaaa bged|(3efgfa gfga|bge^c d4|
